X:13664
T:Prussian Soldier,The. GS.118
M:6/8
L:1/8
Q:60
S:George Spencer m/s, Leeds,1831
R:Jig
O:England
A:Leeds
N:NB Paul Roberts suggests that some 6/8 tunes may be treated to a waltz
N:- like tempo,or as residual 6/4 a la Playford, like this,and very nice
N:too.It's certainly worth trying with some of these otherwise rather
N:lame sounding quadrille type thingys. CGP.
H:1831
Z:vmp.Cherri Graebe
K:G major
GAB cAc | BGB AFD | GAB cAc | (B/c/d)B G3 :||:!
Bdf gdB | gdB gdB | Bdf gdB | gdB A3 |! Bdf geB | gdB gdB |
(c/d/e)c (A/B/c)A | BGG G3 :||
